src/lib/packages/icons/src/assets/line/users.svg

<svg width="24" height="24" viewBox="0 0 24 24" fill="none" xmlns="http://www.w3.org/2000/svg">
<path d="M9.00903 10.75C6.66503 10.75 4.75903 8.843 4.75903 6.5C4.75903 4.157 6.66503 2.25 9.00903 2.25C11.353 2.25 13.259 4.157 13.259 6.5C13.259 8.843 11.353 10.75 9.00903 10.75ZM9.00903 3.75C7.49203 3.75 6.25903 4.983 6.25903 6.5C6.25903 8.017 7.49203 9.25 9.00903 9.25C10.526 9.25 11.759 8.017 11.759 6.5C11.759 4.983 10.525 3.75 9.00903 3.75ZM12.9969 21.75H5.00305C2.58305 21.75 1.25 20.425 1.25 18.019C1.25 15.358 2.756 12.25 7 12.25H11C15.244 12.25 16.75 15.357 16.75 18.019C16.75 20.425 15.4169 21.75 12.9969 21.75ZM7 13.75C3.057 13.75 2.75 17.017 2.75 18.019C2.75 19.583 3.42405 20.25 5.00305 20.25H12.9969C14.5759 20.25 15.25 19.583 15.25 18.019C15.25 17.018 14.943 13.75 11 13.75H7ZM16.5601 11.1899C15.6511 11.1899 14.797 10.8439 14.156 10.2159C13.86 9.92594 13.854 9.45103 14.144 9.15503C14.435 8.85903 14.91 8.85504 15.205 9.14404C15.564 9.49604 16.0461 9.68994 16.5601 9.68994C17.6651 9.68994 18.531 8.82497 18.531 7.71997C18.531 6.63397 17.6471 5.75 16.5601 5.75C16.2521 5.75 15.974 5.81301 15.733 5.93701C15.366 6.12701 14.913 5.98104 14.723 5.61304C14.533 5.24504 14.679 4.79303 15.047 4.60303C15.503 4.36903 16.0121 4.25 16.5601 4.25C18.4741 4.25 20.031 5.80697 20.031 7.71997C20.03 9.63297 18.4741 11.1899 16.5601 11.1899ZM19.66 19.75H18.98C18.566 19.75 18.23 19.414 18.23 19C18.23 18.586 18.566 18.25 18.98 18.25H19.66C20.805 18.25 21.25 17.8101 21.25 16.6801C21.25 15.9411 21.023 13.53 18.11 13.53H16.599C16.185 13.53 15.849 13.194 15.849 12.78C15.849 12.366 16.185 12.03 16.599 12.03H18.11C21.535 12.03 22.75 14.5351 22.75 16.6801C22.75 18.6311 21.624 19.75 19.66 19.75Z" fill="currentColor"/>
</svg>

<svg xmlns="http://www.w3.org/2000/svg" width="24" height="24" fill="none"><path fill="currentColor" d="M9.009 10.75a4.255 4.255 0 0 1-4.25-4.25 4.255 4.255 0 0 1 4.25-4.25 4.255 4.255 0 0 1 4.25 4.25 4.255 4.255 0 0 1-4.25 4.25Zm0-7a2.752 2.752 0 0 0-2.75 2.75 2.752 2.752 0 0 0 2.75 2.75 2.752 2.752 0 0 0 2.75-2.75 2.753 2.753 0 0 0-2.75-2.75Zm3.988 18H5.003c-2.42 0-3.753-1.325-3.753-3.731 0-2.661 1.506-5.769 5.75-5.769h4c4.244 0 5.75 3.107 5.75 5.769 0 2.406-1.333 3.731-3.753 3.731ZM7 13.75c-3.943 0-4.25 3.267-4.25 4.269 0 1.564.674 2.231 2.253 2.231h7.994c1.579 0 2.253-.667 2.253-2.231 0-1.001-.307-4.269-4.25-4.269H7Zm9.56-2.56a3.413 3.413 0 0 1-2.404-.974.75.75 0 1 1 1.049-1.072c.359.352.841.546 1.355.546a1.95 1.95 0 0 0 1.971-1.97c0-1.086-.884-1.97-1.97-1.97a1.79 1.79 0 0 0-.828.187.75.75 0 0 1-.686-1.334 3.28 3.28 0 0 1 1.513-.353 3.474 3.474 0 0 1 3.471 3.47 3.475 3.475 0 0 1-3.47 3.47Zm3.1 8.56h-.68a.75.75 0 0 1 0-1.5h.68c1.145 0 1.59-.44 1.59-1.57 0-.739-.227-3.15-3.14-3.15h-1.511a.75.75 0 0 1 0-1.5h1.511c3.425 0 4.64 2.505 4.64 4.65 0 1.951-1.126 3.07-3.09 3.07Z"/></svg>
